svgs/thin/keyboard.svg

<svg xmlns="http://www.w3.org/2000/svg" viewBox="0 0 576 512"><!-- Font Awesome Pro 6.0.0-alpha2 by @fontawesome - https://fontawesome.com License - https://fontawesome.com/license (Commercial License) --><path d="M392 128H376C362.746 128 352 138.746 352 152V168C352 181.254 362.746 192 376 192H392C405.256 192 416 181.254 416 168V152C416 138.746 405.256 128 392 128ZM400 168C400 172.41 396.412 176 392 176H376C371.59 176 368 172.41 368 168V152C368 147.59 371.59 144 376 144H392C396.412 144 400 147.59 400 152V168ZM488 128H472C458.746 128 448 138.746 448 152V168C448 181.254 458.746 192 472 192H488C501.256 192 512 181.254 512 168V152C512 138.746 501.256 128 488 128ZM496 168C496 172.41 492.412 176 488 176H472C467.59 176 464 172.41 464 168V152C464 147.59 467.59 144 472 144H488C492.412 144 496 147.59 496 152V168ZM184 192H200C213.256 192 224 181.254 224 168V152C224 138.746 213.256 128 200 128H184C170.746 128 160 138.746 160 152V168C160 181.254 170.746 192 184 192ZM176 152C176 147.59 179.59 144 184 144H200C204.412 144 208 147.59 208 152V168C208 172.41 204.412 176 200 176H184C179.59 176 176 172.41 176 168V152ZM280 288H296C309.256 288 320 277.254 320 264V248C320 234.746 309.256 224 296 224H280C266.746 224 256 234.746 256 248V264C256 277.254 266.746 288 280 288ZM272 248C272 243.59 275.59 240 280 240H296C300.412 240 304 243.59 304 248V264C304 268.41 300.412 272 296 272H280C275.59 272 272 268.41 272 264V248ZM392 224H376C362.746 224 352 234.746 352 248V264C352 277.254 362.746 288 376 288H392C405.256 288 416 277.254 416 264V248C416 234.746 405.256 224 392 224ZM400 264C400 268.41 396.412 272 392 272H376C371.59 272 368 268.41 368 264V248C368 243.59 371.59 240 376 240H392C396.412 240 400 243.59 400 248V264ZM280 192H296C309.256 192 320 181.254 320 168V152C320 138.746 309.256 128 296 128H280C266.746 128 256 138.746 256 152V168C256 181.254 266.746 192 280 192ZM272 152C272 147.59 275.59 144 280 144H296C300.412 144 304 147.59 304 152V168C304 172.41 300.412 176 296 176H280C275.59 176 272 172.41 272 168V152ZM512 64H64C28.654 64 0 92.652 0 128V384C0 419.348 28.654 448 64 448H512C547.348 448 576 419.348 576 384V128C576 92.652 547.348 64 512 64ZM560 384C560 410.469 538.467 432 512 432H64C37.533 432 16 410.469 16 384V128C16 101.531 37.533 80 64 80H512C538.467 80 560 101.531 560 128V384ZM392 320H184C170.746 320 160 330.746 160 344V360C160 373.254 170.746 384 184 384H392C405.256 384 416 373.254 416 360V344C416 330.746 405.256 320 392 320ZM400 360C400 364.41 396.412 368 392 368H184C179.59 368 176 364.41 176 360V344C176 339.59 179.59 336 184 336H392C396.412 336 400 339.59 400 344V360ZM104 224H88C74.746 224 64 234.746 64 248V264C64 277.254 74.746 288 88 288H104C117.256 288 128 277.254 128 264V248C128 234.746 117.256 224 104 224ZM112 264C112 268.41 108.412 272 104 272H88C83.59 272 80 268.41 80 264V248C80 243.59 83.59 240 88 240H104C108.412 240 112 243.59 112 248V264ZM488 224H472C458.746 224 448 234.746 448 248V264C448 277.254 458.746 288 472 288H488C501.256 288 512 277.254 512 264V248C512 234.746 501.256 224 488 224ZM496 264C496 268.41 492.412 272 488 272H472C467.59 272 464 268.41 464 264V248C464 243.59 467.59 240 472 240H488C492.412 240 496 243.59 496 248V264ZM184 288H200C213.256 288 224 277.254 224 264V248C224 234.746 213.256 224 200 224H184C170.746 224 160 234.746 160 248V264C160 277.254 170.746 288 184 288ZM176 248C176 243.59 179.59 240 184 240H200C204.412 240 208 243.59 208 248V264C208 268.41 204.412 272 200 272H184C179.59 272 176 268.41 176 264V248ZM488 320H472C458.746 320 448 330.746 448 344V360C448 373.254 458.746 384 472 384H488C501.256 384 512 373.254 512 360V344C512 330.746 501.256 320 488 320ZM496 360C496 364.41 492.412 368 488 368H472C467.59 368 464 364.41 464 360V344C464 339.59 467.59 336 472 336H488C492.412 336 496 339.59 496 344V360ZM104 320H88C74.746 320 64 330.746 64 344V360C64 373.254 74.746 384 88 384H104C117.256 384 128 373.254 128 360V344C128 330.746 117.256 320 104 320ZM112 360C112 364.41 108.412 368 104 368H88C83.59 368 80 364.41 80 360V344C80 339.59 83.59 336 88 336H104C108.412 336 112 339.59 112 344V360ZM104 128H88C74.746 128 64 138.746 64 152V168C64 181.254 74.746 192 88 192H104C117.256 192 128 181.254 128 168V152C128 138.746 117.256 128 104 128ZM112 168C112 172.41 108.412 176 104 176H88C83.59 176 80 172.41 80 168V152C80 147.59 83.59 144 88 144H104C108.412 144 112 147.59 112 152V168Z"/></svg>

<svg xmlns="http://www.w3.org/2000/svg" viewBox="0 0 576 512"><!--! Font Awesome Pro 6.0.0-alpha3 by @fontawesome - https://fontawesome.com License - https://fontawesome.com/license (Commercial License) --><path d="M392 128h-16C362.7 128 352 138.7 352 152v16C352 181.3 362.7 192 376 192h16C405.3 192 416 181.3 416 168v-16C416 138.7 405.3 128 392 128zM400 168c0 4.41-3.588 8-8 8h-16c-4.41 0-8-3.59-8-8v-16c0-4.41 3.59-8 8-8h16c4.412 0 8 3.59 8 8V168zM488 128h-16C458.7 128 448 138.7 448 152v16C448 181.3 458.7 192 472 192h16C501.3 192 512 181.3 512 168v-16C512 138.7 501.3 128 488 128zM496 168c0 4.41-3.588 8-8 8h-16c-4.41 0-8-3.59-8-8v-16c0-4.41 3.59-8 8-8h16c4.412 0 8 3.59 8 8V168zM184 192h16C213.3 192 224 181.3 224 168v-16C224 138.7 213.3 128 200 128h-16C170.7 128 160 138.7 160 152v16C160 181.3 170.7 192 184 192zM176 152c0-4.41 3.59-8 8-8h16c4.412 0 8 3.59 8 8v16c0 4.41-3.588 8-8 8h-16C179.6 176 176 172.4 176 168V152zM280 288h16C309.3 288 320 277.3 320 264v-16C320 234.7 309.3 224 296 224h-16C266.7 224 256 234.7 256 248v16C256 277.3 266.7 288 280 288zM272 248c0-4.41 3.59-8 8-8h16c4.412 0 8 3.59 8 8v16c0 4.41-3.588 8-8 8h-16C275.6 272 272 268.4 272 264V248zM392 224h-16C362.7 224 352 234.7 352 248v16C352 277.3 362.7 288 376 288h16C405.3 288 416 277.3 416 264v-16C416 234.7 405.3 224 392 224zM400 264c0 4.41-3.588 8-8 8h-16c-4.41 0-8-3.59-8-8v-16c0-4.41 3.59-8 8-8h16c4.412 0 8 3.59 8 8V264zM280 192h16C309.3 192 320 181.3 320 168v-16C320 138.7 309.3 128 296 128h-16C266.7 128 256 138.7 256 152v16C256 181.3 266.7 192 280 192zM272 152c0-4.41 3.59-8 8-8h16c4.412 0 8 3.59 8 8v16c0 4.41-3.588 8-8 8h-16C275.6 176 272 172.4 272 168V152zM512 64H64C28.65 64 0 92.65 0 128v256c0 35.35 28.65 64 64 64h448c35.35 0 64-28.65 64-64V128C576 92.65 547.3 64 512 64zM560 384c0 26.47-21.53 48-48 48H64c-26.47 0-48-21.53-48-48V128c0-26.47 21.53-48 48-48h448c26.47 0 48 21.53 48 48V384zM392 320h-208C170.7 320 160 330.7 160 344v16C160 373.3 170.7 384 184 384h208c13.26 0 24-10.75 24-24v-16C416 330.7 405.3 320 392 320zM400 360c0 4.41-3.588 8-8 8h-208c-4.41 0-8-3.59-8-8v-16c0-4.41 3.59-8 8-8h208c4.412 0 8 3.59 8 8V360zM104 224h-16C74.75 224 64 234.7 64 248v16C64 277.3 74.75 288 88 288h16C117.3 288 128 277.3 128 264v-16C128 234.7 117.3 224 104 224zM112 264c0 4.41-3.588 8-8 8h-16C83.59 272 80 268.4 80 264v-16c0-4.41 3.59-8 8-8h16c4.412 0 8 3.59 8 8V264zM488 224h-16C458.7 224 448 234.7 448 248v16C448 277.3 458.7 288 472 288h16C501.3 288 512 277.3 512 264v-16C512 234.7 501.3 224 488 224zM496 264c0 4.41-3.588 8-8 8h-16c-4.41 0-8-3.59-8-8v-16c0-4.41 3.59-8 8-8h16c4.412 0 8 3.59 8 8V264zM184 288h16C213.3 288 224 277.3 224 264v-16C224 234.7 213.3 224 200 224h-16C170.7 224 160 234.7 160 248v16C160 277.3 170.7 288 184 288zM176 248c0-4.41 3.59-8 8-8h16c4.412 0 8 3.59 8 8v16c0 4.41-3.588 8-8 8h-16C179.6 272 176 268.4 176 264V248zM488 320h-16C458.7 320 448 330.7 448 344v16c0 13.25 10.75 24 24 24h16c13.26 0 24-10.75 24-24v-16C512 330.7 501.3 320 488 320zM496 360c0 4.41-3.588 8-8 8h-16c-4.41 0-8-3.59-8-8v-16c0-4.41 3.59-8 8-8h16c4.412 0 8 3.59 8 8V360zM104 320h-16C74.75 320 64 330.7 64 344v16C64 373.3 74.75 384 88 384h16C117.3 384 128 373.3 128 360v-16C128 330.7 117.3 320 104 320zM112 360c0 4.41-3.588 8-8 8h-16c-4.41 0-8-3.59-8-8v-16c0-4.41 3.59-8 8-8h16c4.412 0 8 3.59 8 8V360zM104 128h-16C74.75 128 64 138.7 64 152v16C64 181.3 74.75 192 88 192h16C117.3 192 128 181.3 128 168v-16C128 138.7 117.3 128 104 128zM112 168c0 4.41-3.588 8-8 8h-16C83.59 176 80 172.4 80 168v-16c0-4.41 3.59-8 8-8h16c4.412 0 8 3.59 8 8V168z"/></svg>
